apps/scalable/dropbox.svg

<svg height="48" width="48" xmlns="http://www.w3.org/2000/svg" xmlns:xlink="http://www.w3.org/1999/xlink"><linearGradient gradientUnits="userSpaceOnUse" x1="408.57147" x2="409.57144" y1="552.79797" y2="503.798"><stop offset="0" stop-color="#197cf1"/><stop offset="1" stop-color="#59d0ff"/></linearGradient><linearGradient id="a"><stop offset="0" stop-color="#7ed6fb"/><stop offset="1" stop-color="#8fdcfc"/></linearGradient><linearGradient id="b" gradientUnits="userSpaceOnUse" x1="16.092601172467" x2="47.02161436978" y1="985.554953079815" y2="985.554953079815"><stop offset="0" stop-color="#7ed6fb"/><stop offset="1" stop-color="#90ddfc"/></linearGradient><linearGradient id="c" gradientUnits="userSpaceOnUse" x1="19.64816778125" x2="39.036348757813" xlink:href="#a" y1="1011.07141251057" y2="1010.16957893754"/><linearGradient id="d" gradientUnits="userSpaceOnUse" x1="37.232797039063" x2="44.447003914063" y1="1022.58494040114" y2="1025.49982626057"><stop offset="0" stop-color="#1581ce"/><stop offset="1" stop-color="#32a9e0"/></linearGradient><linearGradient id="e" gradientUnits="userSpaceOnUse" x1="55.084770952385" x2="58.910678398721" y1="1025.01526241319" y2="1023.10240103187"><stop offset="0" stop-color="#62c8f7"/><stop offset="1" stop-color="#36aaf2"/></linearGradient><linearGradient id="f" gradientUnits="userSpaceOnUse" x1="76.446106765646" x2="59.867159877398" xlink:href="#a" y1="1010.03048902899" y2="1009.71156337146"/><linearGradient id="g" gradientUnits="userSpaceOnUse" x1="74.214334732347" x2="57.95420615423" y1="983.249136904638" y2="986.118544403928"><stop offset="0" stop-color="#7ed6fb"/><stop offset="1" stop-color="#8edcfc"/></linearGradient><g transform="matrix(.666666669147 0 0 .666666669147 -8.102068333836 -645.268444116499)"><path d="m47.854262 984.1888 21.37454 13.23022-21.228802 13.31808-21.479302-13.31808z" fill="#7ed6fb"/><path d="m12 985.43467 21.374552-13.23027 14.516139 11.95117-21.369993 13.26345z" fill="url(#b)"/><path d="m47.857967 984.17912 21.420087 13.2576 14.62546-11.89651-21.479313-13.31809z" fill="url(#g)"/><path d="m47.854262 984.1888-.0011 22.7039-21.228803 13.3181-.103196-22.79178z" fill="#62c8f7"/><path d="m47.854262 984.1888.0011 22.7039 21.22879 13.3181.103197-22.79178z" fill="#32a9e0"/><path d="m69.187814 997.41902-.0011 25.76468-21.228801 13.3181-.103197-25.8526z" fill="url(#e)"/><path d="m48 1010.6671 21.374552-13.23038 14.625448 11.89658-21.479302 13.3182z" fill="url(#f)"/><path d="m26.520698 997.41902.0011 25.76468 21.429195 13.3363-.09719-25.8708z" fill="url(#d)"/><path d="m12 1009.4033 21.374552 13.2304 14.625448-11.8966-21.479302-13.31808z" fill="url(#c)"/></g></svg>

<?xml version="1.0" encoding="UTF-8" standalone="no"?>
<!-- Created with Inkscape (http://www.inkscape.org/) -->

<svg
   xmlns:dc="http://purl.org/dc/elements/1.1/"
   xmlns:cc="http://creativecommons.org/ns#"
   xmlns:rdf="http://www.w3.org/1999/02/22-rdf-syntax-ns#"
   xmlns:svg="http://www.w3.org/2000/svg"
   xmlns="http://www.w3.org/2000/svg"
   xmlns:xlink="http://www.w3.org/1999/xlink"
   xmlns:sodipodi="http://sodipodi.sourceforge.net/DTD/sodipodi-0.dtd"
   xmlns:inkscape="http://www.inkscape.org/namespaces/inkscape"
   width="48"
   height="48"
   id="svg5453"
   version="1.1"
   inkscape:version="0.91 r13725"
   sodipodi:docname="dropbox.svg">
  <defs
     id="defs5455">
    <linearGradient
       inkscape:collect="always"
       id="linearGradient4535">
      <stop
         style="stop-color:#197cf1;stop-opacity:1"
         offset="0"
         id="stop4537" />
      <stop
         style="stop-color:#59d0ff;stop-opacity:1"
         offset="1"
         id="stop4539" />
    </linearGradient>
    <linearGradient
       inkscape:collect="always"
       xlink:href="#linearGradient4535"
       id="linearGradient4533"
       x1="408.57147"
       y1="552.79797"
       x2="409.57144"
       y2="503.798"
       gradientUnits="userSpaceOnUse" />
    <linearGradient
       id="linearGradient4619"
       inkscape:collect="always">
      <stop
         id="stop4621"
         offset="0"
         style="stop-color:#7ed6fb;stop-opacity:1" />
      <stop
         id="stop4623"
         offset="1"
         style="stop-color:#8edcfc;stop-opacity:1" />
    </linearGradient>
    <linearGradient
       id="linearGradient4611"
       inkscape:collect="always">
      <stop
         id="stop4613"
         offset="0"
         style="stop-color:#7ed6fb;stop-opacity:1" />
      <stop
         id="stop4615"
         offset="1"
         style="stop-color:#8fdcfc;stop-opacity:1" />
    </linearGradient>
    <linearGradient
       id="linearGradient4603"
       inkscape:collect="always">
      <stop
         id="stop4605"
         offset="0"
         style="stop-color:#62c8f7;stop-opacity:1" />
      <stop
         id="stop4607"
         offset="1"
         style="stop-color:#36aaf2;stop-opacity:1" />
    </linearGradient>
    <linearGradient
       id="linearGradient4595"
       inkscape:collect="always">
      <stop
         id="stop4597"
         offset="0"
         style="stop-color:#1581ce;stop-opacity:1" />
      <stop
         id="stop4599"
         offset="1"
         style="stop-color:#32a9e0;stop-opacity:1" />
    </linearGradient>
    <linearGradient
       inkscape:collect="always"
       id="linearGradient4570">
      <stop
         style="stop-color:#7ed6fb;stop-opacity:1"
         offset="0"
         id="stop4572" />
      <stop
         style="stop-color:#90ddfc;stop-opacity:1"
         offset="1"
         id="stop4574" />
    </linearGradient>
    <linearGradient
       y2="880.93365"
       x2="165.7238"
       y1="880.93365"
       x1="138.92857"
       gradientTransform="matrix(1.1542731,0,0,1.1542731,-144.26891,-31.283062)"
       gradientUnits="userSpaceOnUse"
       id="linearGradient4201"
       xlink:href="#linearGradient4570"
       inkscape:collect="always" />
    <linearGradient
       gradientTransform="matrix(1.1542731,0,0,1.1542731,-7.4051082,-154.94607)"
       gradientUnits="userSpaceOnUse"
       y2="1009.3934"
       x2="40.234375"
       y1="1010.1747"
       x1="23.4375"
       id="linearGradient4593"
       xlink:href="#linearGradient4611"
       inkscape:collect="always" />
    <linearGradient
       gradientTransform="matrix(1.1542731,0,0,1.1542731,-7.4051082,-154.94607)"
       gradientUnits="userSpaceOnUse"
       y2="1022.6747"
       x2="44.921875"
       y1="1020.1494"
       x1="38.671875"
       id="linearGradient4601"
       xlink:href="#linearGradient4595"
       inkscape:collect="always" />
    <linearGradient
       gradientTransform="matrix(1.1542731,0,0,1.1542731,-7.4051082,-154.94607)"
       gradientUnits="userSpaceOnUse"
       y2="1020.5977"
       x2="57.452423"
       y1="1022.2549"
       x1="54.137863"
       id="linearGradient4609"
       xlink:href="#linearGradient4603"
       inkscape:collect="always" />
    <linearGradient
       gradientTransform="matrix(1.1542731,0,0,1.1542731,-7.4051082,-154.94607)"
       gradientUnits="userSpaceOnUse"
       y2="1008.9966"
       x2="58.281067"
       y1="1009.2729"
       x1="72.644173"
       id="linearGradient4617"
       xlink:href="#linearGradient4611"
       inkscape:collect="always" />
    <linearGradient
       gradientTransform="matrix(1.1542731,0,0,1.1542731,-7.4051082,-154.94607)"
       gradientUnits="userSpaceOnUse"
       y2="988.55688"
       x2="56.623787"
       y1="986.07098"
       x1="70.710686"
       id="linearGradient4625"
       xlink:href="#linearGradient4619"
       inkscape:collect="always" />
  </defs>
  <sodipodi:namedview
     id="base"
     pagecolor="#5a5a5a"
     bordercolor="#ffffff"
     borderopacity="1"
     inkscape:pageopacity="0"
     inkscape:pageshadow="2"
     inkscape:zoom="6.0433462"
     inkscape:cx="43.164356"
     inkscape:cy="19.95038"
     inkscape:document-units="px"
     inkscape:current-layer="g4571"
     showgrid="false"
     fit-margin-top="0"
     fit-margin-left="0"
     fit-margin-right="0"
     fit-margin-bottom="0"
     inkscape:window-width="1366"
     inkscape:window-height="642"
     inkscape:window-x="0"
     inkscape:window-y="33"
     inkscape:window-maximized="1"
     inkscape:showpageshadow="false"
     borderlayer="true"
     showguides="false"
     showborder="false">
    <inkscape:grid
       type="xygrid"
       id="grid4063" />
    <sodipodi:guide
       position="44.000012,-5"
       orientation="4,0"
       id="guide4146" />
    <sodipodi:guide
       position="1.1650391e-05,43.999996"
       orientation="0,48"
       id="guide4148" />
    <sodipodi:guide
       position="48.000012,43.999996"
       orientation="-4,0"
       id="guide4150" />
    <sodipodi:guide
       position="48.000012,47.999996"
       orientation="0,-48"
       id="guide4152" />
    <sodipodi:guide
       position="1.1650391e-05,4.0000264"
       orientation="4,0"
       id="guide4154" />
    <sodipodi:guide
       position="1.1650391e-05,2.6367188e-05"
       orientation="0,48"
       id="guide4156" />
    <sodipodi:guide
       position="48.000012,2.6367188e-05"
       orientation="-4,0"
       id="guide4158" />
    <sodipodi:guide
       position="48.000012,4.0000264"
       orientation="0,-48"
       id="guide4160" />
    <sodipodi:guide
       position="48.000012,48.000026"
       orientation="0,-4"
       id="guide4162" />
    <sodipodi:guide
       position="44.000012,48.000026"
       orientation="48,0"
       id="guide4164" />
    <sodipodi:guide
       position="44.000012,2.6367188e-05"
       orientation="0,4"
       id="guide4166" />
    <sodipodi:guide
       position="48.000012,2.6367188e-05"
       orientation="-48,0"
       id="guide4168" />
    <sodipodi:guide
       position="4.0000422,48.000026"
       orientation="0,-4"
       id="guide4170" />
    <sodipodi:guide
       position="4.2167969e-05,48.000026"
       orientation="48,0"
       id="guide4172" />
    <sodipodi:guide
       position="4.2167969e-05,2.6367188e-05"
       orientation="0,4"
       id="guide4174" />
    <sodipodi:guide
       position="4.0000422,2.6367188e-05"
       orientation="-48,0"
       id="guide4176" />
    <sodipodi:guide
       position="4.0000422,43.999996"
       orientation="39.999969,0"
       id="guide4175" />
    <sodipodi:guide
       position="4.0000422,4.0000264"
       orientation="0,20"
       id="guide4177" />
    <sodipodi:guide
       position="24.000042,4.0000264"
       orientation="-39.999969,0"
       id="guide4179" />
    <sodipodi:guide
       position="24.000042,43.999996"
       orientation="0,-20"
       id="guide4181" />
    <sodipodi:guide
       position="4.0000422,23.999843"
       orientation="20,0"
       id="guide4185" />
    <sodipodi:guide
       position="44.000012,3.9998433"
       orientation="-20,0"
       id="guide4189" />
    <sodipodi:guide
       position="-55,15"
       orientation="0,-39.999969"
       id="guide4191" />
  </sodipodi:namedview>
  <metadata
     id="metadata5458">
    <rdf:RDF>
      <cc:Work
         rdf:about="">
        <dc:format>image/svg+xml</dc:format>
        <dc:type
           rdf:resource="http://purl.org/dc/dcmitype/StillImage" />
        <dc:title></dc:title>
      </cc:Work>
    </rdf:RDF>
  </metadata>
  <g
     inkscape:label="Layer 1"
     inkscape:groupmode="layer"
     id="layer1"
     transform="translate(-384.57143,-499.798)">
    <g
       id="g4415"
       style="fill-opacity:1;fill:url(#linearGradient4533)" />
    <g
       id="g4571"
       transform="matrix(1.0503823,0,0,1.0503823,29.748238,-34.889411)">
      <g
         transform="matrix(0.95203432,0,0,0.95203432,261.24708,-510.4174)"
         id="layer1-6"
         inkscape:label="Layer 1">
        <g
           transform="matrix(0.66666667,0,0,0.66666667,72.311815,425.55237)"
           id="g4659">
          <path
             sodipodi:nodetypes="ccccc"
             inkscape:connector-curvature="0"
             id="path4040"
             d="M 47.854262,984.1888 69.228802,997.41902 48,1010.7371 26.520698,997.41902 Z"
             style="fill:#7ed6fb;fill-opacity:1;fill-rule:nonzero;stroke:none" />
          <path
             sodipodi:nodetypes="ccccc"
             inkscape:connector-curvature="0"
             id="path4044"
             d="M 12,985.43467 33.374552,972.2044 47.890691,984.15557 26.520698,997.41902 Z"
             style="fill:url(#linearGradient4201);fill-opacity:1;fill-rule:nonzero;stroke:none" />
          <path
             sodipodi:nodetypes="ccccc"
             inkscape:connector-curvature="0"
             id="path4046"
             d="m 47.857967,984.17912 21.420087,13.2576 14.62546,-11.89651 -21.479313,-13.31809 z"
             style="fill:url(#linearGradient4625);fill-opacity:1;fill-rule:nonzero;stroke:none" />
          <path
             style="fill:#62c8f7;fill-opacity:1;fill-rule:nonzero;stroke:none"
             d="m 47.854262,984.1888 -0.0011,22.7039 -21.228803,13.3181 -0.103196,-22.79178 z"
             id="path4050"
             inkscape:connector-curvature="0"
             sodipodi:nodetypes="ccccc" />
          <path
             sodipodi:nodetypes="ccccc"
             inkscape:connector-curvature="0"
             id="path4052"
             d="m 47.854262,984.1888 0.0011,22.7039 21.22879,13.3181 0.103197,-22.79178 z"
             style="fill:#32a9e0;fill-opacity:1;fill-rule:nonzero;stroke:none" />
          <path
             sodipodi:nodetypes="ccccc"
             inkscape:connector-curvature="0"
             id="path4056"
             d="m 69.187814,997.41902 -0.0011,25.76468 -21.228801,13.3181 -0.103197,-25.8526 z"
             style="fill:url(#linearGradient4609);fill-opacity:1;fill-rule:nonzero;stroke:none" />
          <path
             style="fill:url(#linearGradient4617);fill-opacity:1;fill-rule:nonzero;stroke:none"
             d="M 48,1010.6671 69.374552,997.43672 84,1009.3333 62.520698,1022.6515 Z"
             id="path4048"
             inkscape:connector-curvature="0"
             sodipodi:nodetypes="ccccc" />
          <path
             style="fill:url(#linearGradient4601);fill-opacity:1;fill-rule:nonzero;stroke:none"
             d="m 26.520698,997.41902 0.0011,25.76468 21.429195,13.3363 -0.09719,-25.8708 z"
             id="path4054"
             inkscape:connector-curvature="0"
             sodipodi:nodetypes="ccccc" />
          <path
             style="fill:url(#linearGradient4593);fill-opacity:1;fill-rule:nonzero;stroke:none"
             d="M 12,1009.4033 33.374552,1022.6337 48,1010.7371 26.520698,997.41902 Z"
             id="path4042"
             inkscape:connector-curvature="0"
             sodipodi:nodetypes="ccccc" />
        </g>
      </g>
    </g>
  </g>
</svg>
